!!!OTL: Röschen (127a), S. 289
!!!id: T0295
**kern
*clefG2
*k[f#c#]
*A:
{8c#
8d
=1
4e
4cc#
8a
8f#
=2
4e
4c#}
=3
{8f#
8e
=4
4d
4e
8cc#
8b
=5
4a}
4r
=6
{8c#
8d
=7
4e
4cc#
8a
8f#
=8
4e
4c#
8f#
8e
=9
4d
4e
8cc#
8b
=10
4a
8r
=11
16ccccc#
16aaaa}
{8e
8e
8e
=12
8.b
16b
4b
8e
8e
=13
8.cc#
16cc#
8a}
=14
{8e
8e
8e
=15
*M4/4
4dd
4dd
4ee
8cc#
8cc#
=16
4b}
4r
=17
{8e
8e
=18
*M3/4
4.cc#
8b
8a
8f#
=19
4e
4c#}
=20
{8f#
8e
=21
4d
4e
8cc#
8b
=22
4a}
4r
==
*-
!!!minrhy: 16
!!!meters: 3/4 4/4 ]  ZZ[7
!!!cut1: Röschen (127a), S. 289
!!!cut2: Melodie I
!!!reg: Luxemburg
!!!trd: Singendes Volk, Esch-Alzette 1937 posth.
!!!rhy1: X_X_  X__X__X_X_  X__X__   (x2)
!!!rhy2: X_X_  X__X__X_X_  X__0_
!!!key: T0295  16  A 3/4 4/4 ]  ZZ[7
!!!mod: SECHSTONSKALA DUR ?]  AMBITUS[10b
!!!kad: -31112-31
!!!akz: -5-5_-41_-5-5-41_23_452_3-5_-41_
!!!fot: 'a__b__av_c__d__e__b__
!!!for: 'a__a__aw_b__c__d__a__
!!!fok: '^__Sa_Ma_^a_^a_^d_Sa_
!! PHRAS[AUFTAKTIG]
!!!fkt: Liebeslieder
!!!bem: Reuland, hhh Gabriel Petry, 1907
!! THILL, Mathias:
!! PR[14] 2K[8] 2G[17] 3K[6] 3G[9] 4A[0] 4Ü[0] 5A[0] 6K[0] 6G[0]
!! 7K[0] 7G[0] 8A[0] MEHR[0] SI[39] ABS[66] SR[24] SP[15]
!! ST[16] 2k[12] 2g[30] 3k[2] 3g[3] 4d[0] 4ü[0] 5d[0] 6k[0] 6g[0]
!! 7k[0] 7g[0] 8d[0] mehr[0] si[47] dm[-8] sr[42] sp[5]
!! 1F[11] 2F[43] 3F[31] 4F[0] LF[0] 2P[11] 3P[3] 4P[0] TRI[0] DF[5] AB[70]
!! TF[0] U3K[0] U3[0] U4[0] U4Ü[0] U5[0] U6K[0] U6[0] U7K[0] U7[0]
!! N1[4] N2K[0] N2[4] N3K[0] N3[24] N4[21] N4Ü[0] N5[21] N6K[0] N6[13]
!!!n7k: 0] N7[6] O1[4] O2K[0] O2[1] O3K[0] O3[0] HÖ[0
